styles/2/Numix/64/places/grey-folder-download.svg

<?xml version="1.0" encoding="UTF-8" standalone="no"?>
<svg
   xmlns:dc="http://purl.org/dc/elements/1.1/"
   xmlns:cc="http://creativecommons.org/ns#"
   xmlns:rdf="http://www.w3.org/1999/02/22-rdf-syntax-ns#"
   xmlns:svg="http://www.w3.org/2000/svg"
   xmlns="http://www.w3.org/2000/svg"
   xmlns:sodipodi="http://sodipodi.sourceforge.net/DTD/sodipodi-0.dtd"
   xmlns:inkscape="http://www.inkscape.org/namespaces/inkscape"
   width="64"
   height="64"
   viewBox="0 0 64 64"
   id="svg2993"
   version="1.1"
   inkscape:version="0.91 r"
   sodipodi:docname="grey-folder-download.svg">
  <metadata
     id="metadata3015">
    <rdf:RDF>
      <cc:Work
         rdf:about="">
        <dc:format>image/svg+xml</dc:format>
        <dc:type
           rdf:resource="http://purl.org/dc/dcmitype/StillImage" />
      </cc:Work>
    </rdf:RDF>
  </metadata>
  <defs
     id="defs3013" />
  <sodipodi:namedview
     pagecolor="#ffffff"
     bordercolor="#666666"
     borderopacity="1"
     objecttolerance="10"
     gridtolerance="10"
     guidetolerance="10"
     inkscape:pageopacity="0"
     inkscape:pageshadow="2"
     inkscape:window-width="1280"
     inkscape:window-height="998"
     id="namedview3011"
     showgrid="false"
     inkscape:zoom="7.375"
     inkscape:cx="3.5217159"
     inkscape:cy="25.098657"
     inkscape:window-x="0"
     inkscape:window-y="0"
     inkscape:window-maximized="1"
     inkscape:current-layer="svg2993" />
  <path
     style="fill:#bdbdbd;fill-opacity:1;stroke:none"
     d="M 9,8 C 7.536083,8 6,9.511222 6,11 l 0,1 -3,0 c -1.470099,0 -3,1.49533 -3,3 l 0,38 c 0,2 1,3 3,3 l 58,0 c 1.567614,0 3,-1.358342 3,-3 l 0,-33 c 0,-1.504928 -1.455038,-3 -3,-3 l -3,0 0,-6 C 58,9.538844 56.546781,8 55,8 z"
     id="path6"
     inkscape:connector-curvature="0"
     sodipodi:nodetypes="ssccssssscccsss" />
  <path
     inkscape:connector-curvature="0"
     style="fill:#000000;fill-opacity:0.32156863;stroke:none"
     d="M 9,8 C 7.536083,8 6,9.511222 6,11 l 0,1 -3,0 c -1.470099,0 -3,1.49533 -3,3 l 0,38 c 0,2 1,3 3,3 l 58,0 c 1.567614,0 3,-1.358342 3,-3 l 0,-33 c 0,-1.504928 -1.455038,-3 -3,-3 l -3,0 0,-6 C 58,9.538844 56.546781,8 55,8 L 9,8 z m -6,6 34,0 c 0.590175,0 1,0.51477 1,1 l 0,4 23,0 c 0.505551,0 1,0.508742 1,1 l 0,33 c 0,0.521292 -0.478766,1 -1,1 L 3,54 C 2.535705,54 2,53.603654 2,53 L 2,15 c 0,-0.492405 0.516528,-1 1,-1 z"
     id="path3778" />
  <path
     style="opacity:1;fill:#000000;fill-opacity:0.32156864000000002;stroke:none"
     d="M 32 24 C 30.892 24 30 24.892 30 26 L 30 36 L 26 36 C 24 36 24 36 26 38 L 30 42 C 32 44 32 44 34 42 L 38 38 C 40 36 40 36 38 36 L 34 36 L 34 26 C 34 24.892 33.108 24 32 24 z M 19.9375 38 C 18.868886 38 18 38.892 18 40 L 18 47.90625 L 18 48 L 18 48.09375 C 18.004701 48.19923 18.011515 48.305742 18.03125 48.40625 C 18.034948 48.427055 18.026855 48.448185 18.03125 48.46875 C 18.056098 48.578393 18.114876 48.679489 18.15625 48.78125 C 18.206898 48.905836 18.268109 49.014827 18.34375 49.125 C 18.402708 49.210874 18.458888 49.299579 18.53125 49.375 C 18.541722 49.386383 18.551772 49.395127 18.5625 49.40625 C 18.572856 49.416568 18.583154 49.427407 18.59375 49.4375 C 18.672406 49.515472 18.753191 49.592919 18.84375 49.65625 C 18.902598 49.695932 18.967897 49.716461 19.03125 49.75 C 19.0823 49.778218 19.133813 49.820284 19.1875 49.84375 C 19.196451 49.847494 19.20973 49.840128 19.21875 49.84375 C 19.325792 49.88849 19.415557 49.944327 19.53125 49.96875 C 19.550599 49.973081 19.574186 49.964956 19.59375 49.96875 C 19.701452 49.987948 19.824353 50 19.9375 50 C 19.95852 50.000617 19.978818 50 20 50 L 20.0625 50 L 43.9375 50 L 44 50 C 44.353839 50 44.680984 49.902343 44.96875 49.75 C 45.015604 49.724101 45.080574 49.717187 45.125 49.6875 C 45.137471 49.679488 45.143983 49.664522 45.15625 49.65625 C 45.246809 49.592919 45.327594 49.515472 45.40625 49.4375 C 45.411859 49.432156 45.400708 49.411657 45.40625 49.40625 C 45.411724 49.400708 45.43209 49.411859 45.4375 49.40625 C 45.447856 49.395932 45.458639 49.385539 45.46875 49.375 C 45.537475 49.3003 45.599293 49.241336 45.65625 49.15625 C 45.661525 49.1488 45.651083 49.132525 45.65625 49.125 C 45.731891 49.014827 45.793102 48.905836 45.84375 48.78125 C 45.885124 48.679489 45.943902 48.578393 45.96875 48.46875 C 45.973145 48.448185 45.965052 48.427055 45.96875 48.40625 C 45.988485 48.305742 45.995299 48.19923 46 48.09375 L 46 47.90625 L 46 40 C 46 38.892 45.131114 38 44.0625 38 L 43.9375 38 C 42.868886 38 42 38.892 42 40 L 42 46 L 22 46 L 22 40 C 22 38.892 21.131114 38 20.0625 38 L 19.9375 38 z "
     id="rect2989" />
</svg>

<svg xmlns="http://www.w3.org/2000/svg" viewBox="0 0 64 64">
 <path d="m 9 8 c -1.464 0 -3 1.511 -3 3 l 0 1 -3 0 c -1.47 0 -3 1.495 -3 3 l 0 38 c 0 2 1 3 3 3 l 58 0 c 1.568 0 3 -1.358 3 -3 l 0 -33 c 0 -1.505 -1.455 -3 -3 -3 l -3 0 0 -6 c 0 -1.461 -1.453 -3 -3 -3 z" style="fill:#bdbdbd;fill-opacity:1;stroke:none"/>
 <path d="m 9 8 c -1.464 0 -3 1.511 -3 3 l 0 1 -3 0 c -1.47 0 -3 1.495 -3 3 l 0 38 c 0 2 1 3 3 3 l 58 0 c 1.568 0 3 -1.358 3 -3 l 0 -33 c 0 -1.505 -1.455 -3 -3 -3 l -3 0 0 -6 c 0 -1.461 -1.453 -3 -3 -3 l -46 0 z m -6 6 34 0 c 0.59 0 1 0.515 1 1 l 0 4 23 0 c 0.506 0 1 0.509 1 1 l 0 33 c 0 0.521 -0.479 1 -1 1 l -58 0 c -0.464 0 -1 -0.396 -1 -1 l 0 -38 c 0 -0.492 0.517 -1 1 -1 z" style="fill:#000;fill-opacity:0.322;stroke:none"/>
 <path d="m 32 24 c -1.108 0 -2 0.892 -2 2 l 0 10 l -4 0 c -2 0 -2 0 0 2 l 4 4 c 2 2 2 2 4 0 l 4 -4 c 2 -2 2 -2 0 -2 l -4 0 l 0 -10 c 0 -1.108 -0.892 -2 -2 -2 z m -12.06 14 c -1.069 0 -1.938 0.892 -1.938 2 l 0 7.906 l 0 0.094 l 0 0.094 c 0.005 0.105 0.012 0.212 0.031 0.313 c 0.004 0.021 -0.004 0.042 0 0.063 c 0.025 0.11 0.084 0.211 0.125 0.313 c 0.051 0.125 0.112 0.234 0.188 0.344 c 0.059 0.086 0.115 0.175 0.188 0.25 c 0.01 0.011 0.021 0.02 0.031 0.031 c 0.01 0.01 0.021 0.021 0.031 0.031 c 0.079 0.078 0.159 0.155 0.25 0.219 c 0.059 0.04 0.124 0.06 0.188 0.094 c 0.051 0.028 0.103 0.07 0.156 0.094 c 0.009 0.004 0.022 -0.004 0.031 0 c 0.107 0.045 0.197 0.101 0.313 0.125 c 0.019 0.004 0.043 -0.004 0.063 0 c 0.108 0.019 0.231 0.031 0.344 0.031 c 0.021 0.001 0.041 0 0.063 0 l 0.063 0 l 23.875 0 l 0.063 0 c 0.354 0 0.681 -0.098 0.969 -0.25 c 0.047 -0.026 0.112 -0.033 0.156 -0.063 c 0.012 -0.008 0.019 -0.023 0.031 -0.031 c 0.091 -0.063 0.171 -0.141 0.25 -0.219 c 0.006 -0.005 -0.006 -0.026 0 -0.031 c 0.005 -0.006 0.026 0.006 0.031 0 c 0.01 -0.01 0.021 -0.021 0.031 -0.031 c 0.069 -0.075 0.131 -0.134 0.188 -0.219 c 0.005 -0.007 -0.005 -0.024 0 -0.031 c 0.076 -0.11 0.137 -0.219 0.188 -0.344 c 0.041 -0.102 0.1 -0.203 0.125 -0.313 c 0.004 -0.021 -0.004 -0.042 0 -0.063 c 0.02 -0.101 0.027 -0.207 0.031 -0.313 l 0 -0.188 l 0 -7.906 c 0 -1.108 -0.869 -2 -1.938 -2 l -0.125 0 c -1.069 0 -1.938 0.892 -1.938 2 l 0 6 l -20 0 l 0 -6 c 0 -1.108 -0.869 -2 -1.938 -2 l -0.125 0 z" style="fill:#000;opacity:1;fill-opacity:0.322;stroke:none"/>
</svg>
